z-union/img/icons/instagram.svg

<svg width="36" height="36" viewBox="0 0 36 36" fill="none" xmlns="http://www.w3.org/2000/svg">
<path d="M11.1719 11.6719C12.9427 9.90104 15.0781 9.01562 17.5781 9.01562C20.0781 9.01562 22.1875 9.90104 23.9062 11.6719C25.6771 13.3906 26.5625 15.5 26.5625 18C26.5625 20.5 25.6771 22.6354 23.9062 24.4062C22.1875 26.125 20.0781 26.9844 17.5781 26.9844C15.0781 26.9844 12.9427 26.125 11.1719 24.4062C9.45312 22.6354 8.59375 20.5 8.59375 18C8.59375 15.5 9.45312 13.3906 11.1719 11.6719ZM13.4375 22.1406C14.5833 23.2865 15.9635 23.8594 17.5781 23.8594C19.1927 23.8594 20.5729 23.2865 21.7188 22.1406C22.8646 20.9948 23.4375 19.6146 23.4375 18C23.4375 16.3854 22.8646 15.0052 21.7188 13.8594C20.5729 12.7135 19.1927 12.1406 17.5781 12.1406C15.9635 12.1406 14.5833 12.7135 13.4375 13.8594C12.2917 15.0052 11.7188 16.3854 11.7188 18C11.7188 19.6146 12.2917 20.9948 13.4375 22.1406ZM28.3594 7.21875C28.776 7.58333 28.9844 8.05208 28.9844 8.625C28.9844 9.19792 28.776 9.69271 28.3594 10.1094C27.9948 10.526 27.526 10.7344 26.9531 10.7344C26.3802 10.7344 25.8854 10.526 25.4688 10.1094C25.0521 9.69271 24.8438 9.19792 24.8438 8.625C24.8438 8.05208 25.0521 7.58333 25.4688 7.21875C25.8854 6.80208 26.3802 6.59375 26.9531 6.59375C27.526 6.59375 27.9948 6.80208 28.3594 7.21875ZM35 10.8125C35.0521 12.2188 35.0781 14.6146 35.0781 18C35.0781 21.3854 35.0521 23.7812 35 25.1875C34.8438 28.3646 33.8802 30.8385 32.1094 32.6094C30.3906 34.3281 27.9427 35.2396 24.7656 35.3438C23.3594 35.4479 20.9635 35.5 17.5781 35.5C14.1927 35.5 11.7969 35.4479 10.3906 35.3438C7.21354 35.1875 4.76562 34.25 3.04688 32.5312C2.36979 31.9062 1.82292 31.1771 1.40625 30.3438C0.989583 29.5104 0.677083 28.7031 0.46875 27.9219C0.3125 27.1406 0.234375 26.2292 0.234375 25.1875C0.130208 23.7812 0.078125 21.3854 0.078125 18C0.078125 14.6146 0.130208 12.1927 0.234375 10.7344C0.390625 7.60938 1.32812 5.1875 3.04688 3.46875C4.76562 1.69792 7.21354 0.734375 10.3906 0.578125C11.7969 0.526042 14.1927 0.5 17.5781 0.5C20.9635 0.5 23.3594 0.526042 24.7656 0.578125C27.9427 0.734375 30.3906 1.69792 32.1094 3.46875C33.8802 5.1875 34.8438 7.63542 35 10.8125ZM31.25 28.3125C31.4062 27.8958 31.5365 27.375 31.6406 26.75C31.7448 26.0729 31.8229 25.2917 31.875 24.4062C31.9271 23.4688 31.9531 22.7135 31.9531 22.1406C31.9531 21.5677 31.9531 20.7604 31.9531 19.7188C31.9531 18.6771 31.9531 18.1042 31.9531 18C31.9531 17.8438 31.9531 17.2708 31.9531 16.2812C31.9531 15.2396 31.9531 14.4323 31.9531 13.8594C31.9531 13.2865 31.9271 12.5573 31.875 11.6719C31.8229 10.7344 31.7448 9.95312 31.6406 9.32812C31.5365 8.65104 31.4062 8.10417 31.25 7.6875C30.625 6.07292 29.5052 4.95312 27.8906 4.32812C27.474 4.17188 26.9271 4.04167 26.25 3.9375C25.625 3.83333 24.8438 3.75521 23.9062 3.70312C23.0208 3.65104 22.2917 3.625 21.7188 3.625C21.1979 3.625 20.3906 3.625 19.2969 3.625C18.2552 3.625 17.6823 3.625 17.5781 3.625C17.474 3.625 16.901 3.625 15.8594 3.625C14.8177 3.625 14.0104 3.625 13.4375 3.625C12.8646 3.625 12.1094 3.65104 11.1719 3.70312C10.2865 3.75521 9.50521 3.83333 8.82812 3.9375C8.20312 4.04167 7.68229 4.17188 7.26562 4.32812C5.65104 4.95312 4.53125 6.07292 3.90625 7.6875C3.75 8.10417 3.61979 8.65104 3.51562 9.32812C3.41146 9.95312 3.33333 10.7344 3.28125 11.6719C3.22917 12.5573 3.20312 13.2865 3.20312 13.8594C3.20312 14.3802 3.20312 15.1875 3.20312 16.2812C3.20312 17.3229 3.20312 17.8958 3.20312 18C3.20312 18.2083 3.20312 18.7031 3.20312 19.4844C3.20312 20.2135 3.20312 20.8385 3.20312 21.3594C3.20312 21.8281 3.20312 22.4531 3.20312 23.2344C3.25521 24.0156 3.30729 24.6927 3.35938 25.2656C3.41146 25.7865 3.48958 26.3333 3.59375 26.9062C3.69792 27.4792 3.80208 27.9479 3.90625 28.3125C4.58333 29.9271 5.70312 31.0469 7.26562 31.6719C7.68229 31.8281 8.20312 31.9583 8.82812 32.0625C9.50521 32.1667 10.2865 32.2448 11.1719 32.2969C12.1094 32.349 12.8385 32.375 13.3594 32.375C13.9323 32.375 14.7396 32.375 15.7812 32.375C16.875 32.375 17.474 32.375 17.5781 32.375C17.7344 32.375 18.3073 32.375 19.2969 32.375C20.3385 32.375 21.1458 32.375 21.7188 32.375C22.2917 32.375 23.0208 32.349 23.9062 32.2969C24.8438 32.2448 25.625 32.1667 26.25 32.0625C26.9271 31.9583 27.474 31.8281 27.8906 31.6719C29.5052 30.9948 30.625 29.875 31.25 28.3125Z" fill="white"/>
</svg>

<svg width="36" height="36" fill="none" xmlns="http://www.w3.org/2000/svg"><path d="M11.172 11.672c1.77-1.771 3.906-2.656 6.406-2.656 2.5 0 4.61.885 6.328 2.656C25.677 13.39 26.563 15.5 26.563 18c0 2.5-.886 4.635-2.657 6.406-1.718 1.719-3.828 2.578-6.328 2.578-2.5 0-4.635-.859-6.406-2.578C9.453 22.636 8.594 20.5 8.594 18c0-2.5.86-4.61 2.578-6.328zm2.265 10.469c1.146 1.146 2.527 1.718 4.141 1.718 1.615 0 2.995-.573 4.14-1.718 1.147-1.146 1.72-2.526 1.72-4.141 0-1.615-.573-2.995-1.72-4.14-1.145-1.146-2.525-1.72-4.14-1.72-1.614 0-2.995.573-4.14 1.72-1.146 1.145-1.72 2.525-1.72 4.14 0 1.615.574 2.995 1.72 4.14zM28.36 7.219c.417.364.625.833.625 1.406s-.208 1.068-.625 1.484c-.364.417-.833.625-1.406.625a2.028 2.028 0 01-1.484-.625 2.028 2.028 0 01-.625-1.484c0-.573.208-1.042.625-1.406a2.028 2.028 0 011.484-.625c.573 0 1.042.208 1.406.625zM35 10.812c.052 1.407.078 3.803.078 7.188s-.026 5.781-.078 7.188c-.156 3.177-1.12 5.65-2.89 7.421-1.72 1.72-4.167 2.63-7.344 2.735-1.407.104-3.802.156-7.188.156-3.385 0-5.781-.052-7.187-.156-3.177-.157-5.625-1.094-7.344-2.813a7.54 7.54 0 01-1.64-2.187 12.83 12.83 0 01-.938-2.422c-.156-.781-.235-1.693-.235-2.735C.13 23.782.078 21.386.078 18c0-3.385.052-5.807.156-7.266C.391 7.61 1.328 5.188 3.047 3.47 4.766 1.698 7.214.734 10.39.579 11.797.525 14.193.5 17.578.5c3.386 0 5.781.026 7.188.078 3.177.156 5.625 1.12 7.343 2.89 1.771 1.72 2.735 4.167 2.891 7.345zm-3.75 17.5a8.42 8.42 0 00.39-1.562 25.39 25.39 0 00.235-2.344 42.78 42.78 0 00.078-2.265v-8.282c0-.572-.026-1.302-.078-2.187a22.103 22.103 0 00-.234-2.344c-.104-.677-.235-1.224-.391-1.64-.625-1.615-1.745-2.735-3.36-3.36-.416-.156-.963-.286-1.64-.39a22.107 22.107 0 00-2.344-.235 38.607 38.607 0 00-2.187-.078h-8.281c-.573 0-1.329.026-2.266.078a25.4 25.4 0 00-2.344.235c-.625.104-1.146.234-1.562.39-1.615.625-2.735 1.745-3.36 3.36-.156.416-.286.963-.39 1.64a22.11 22.11 0 00-.235 2.344 38.611 38.611 0 00-.078 2.187v9.375c.052.782.104 1.459.156 2.032.052.52.13 1.067.235 1.64.104.573.208 1.042.312 1.407.677 1.614 1.797 2.734 3.36 3.359.416.156.937.286 1.562.39.677.105 1.459.183 2.344.235a42.11 42.11 0 002.187.078h8.361c.573 0 1.302-.026 2.187-.078a22.1 22.1 0 002.344-.234c.677-.105 1.224-.235 1.64-.391 1.615-.677 2.735-1.797 3.36-3.36z" fill="#fff"/></svg>
